X:1
T:Larid : BBC 1 et 2
Z:Roger Ngaret (94-95)
R:laride
C:Trad.
S:
A:Bretagne
Q:1/4=120
M:2/4
L:1/8
K:C
T:BBC 1
K:G
A2 e2 | df e2 | de dc/B/ |1 cd ec :|2 cB A2 |:\
A2 c2 | BA B2 | Bd dc/B/ |1 cd ec :|2 cB A2 |]
T:BBC 2
e2 de | cB A2 | AB cB/c/ | dc Be |\
ee de | cB A2 | AB c2 | B2 A2 ::\
A>B cd | ec A2 | A>B cd | ef e2 :|
